fs/calendar_day_24_regular.svg

<svg viewBox="0 0 24 24" fill="none" xmlns="http://www.w3.org/2000/svg" height="1em" width="1em">
  <path d="M17.75 3C19.5449 3 21 4.45507 21 6.25V17.75C21 19.5449 19.5449 21 17.75 21H6.25C4.45507 21 3 19.5449 3 17.75V6.25C3 4.45507 4.45507 3 6.25 3H17.75ZM17.75 4.5H6.25C5.2835 4.5 4.5 5.2835 4.5 6.25V17.75C4.5 18.7165 5.2835 19.5 6.25 19.5H17.75C18.7165 19.5 19.5 18.7165 19.5 17.75V6.25C19.5 5.2835 18.7165 4.5 17.75 4.5ZM16.25 11C16.6642 11 17 11.3358 17 11.75V16.25C17 16.6642 16.6642 17 16.25 17H7.75C7.33579 17 7 16.6642 7 16.25V11.75C7 11.3358 7.33579 11 7.75 11H16.25ZM15.5 12.5H8.5V15.5H15.5V12.5ZM7.75 7.25H16.25C16.6642 7.25 17 7.58579 17 8C17 8.3797 16.7178 8.69349 16.3518 8.74315L16.25 8.75H7.75C7.33579 8.75 7 8.41421 7 8C7 7.6203 7.28215 7.30651 7.64823 7.25685L7.75 7.25H16.25H7.75Z" fill="#212121"/>
</svg>

<svg viewBox="0 0 24 24" fill="none" xmlns="http://www.w3.org/2000/svg" height="1em" width="1em">
  <path d="M17.75 3A3.25 3.25 0 0 1 21 6.25v11.5A3.25 3.25 0 0 1 17.75 21H6.25A3.25 3.25 0 0 1 3 17.75V6.25A3.25 3.25 0 0 1 6.25 3h11.5Zm0 1.5H6.25A1.75 1.75 0 0 0 4.5 6.25v11.5c0 .966.784 1.75 1.75 1.75h11.5a1.75 1.75 0 0 0 1.75-1.75V6.25a1.75 1.75 0 0 0-1.75-1.75Zm-1.5 6.5a.75.75 0 0 1 .75.75v4.5a.75.75 0 0 1-.75.75h-8.5a.75.75 0 0 1-.75-.75v-4.5a.75.75 0 0 1 .75-.75h8.5Zm-.75 1.5h-7v3h7v-3ZM7.75 7.25h8.5a.75.75 0 0 1 .102 1.493l-.102.007h-8.5a.75.75 0 0 1-.102-1.493l.102-.007h8.5-8.5Z" fill="#212121"/>
</svg>
